fry.svg

<svg clip-rule="evenodd" fill-rule="evenodd" stroke-linejoin="round" stroke-miterlimit="2" viewBox="0 0 92 127" xmlns="http://www.w3.org/2000/svg"><g fill-rule="nonzero" transform="translate(-11.1 -1.03664)"><path d="m62.042 1.745c1.272.612 5.135 3.614 5.135 3.614.606.492 1.064 1.062 1.753 1.661 3.019 2.625 12.288 15.521 11.66 15.57-2.362.184 3.751-1.855-5.676-20.447 5.77 3.69 10.346 8.817 14.706 14.027 3.18 4.99 4.69 11.01 5.02 16.87.21 5.27-3.63 10.01-8.91 10.66 2.073 4.568 5.975 7.068 8.82 12.34 2.36 3.97.55 8.69-1.93 12.12 1.24.99 2.68 1.79 3.64 3.08.73 2.32-.53 4.42-2.05 6.07.883 2.17.994 3.588 1.923 4.927 1.469.567 3.926 2.822 5.031 4.097.671.773 1.232 1.824 1.706 2.686.06 1.74-1.6 2.84-3.1 3.17-3.54.75-7.18.63-10.77.76-.2.61-.61 1.82-.82 2.43-3.02 2.71-6.57 4.85-9.04 8.14 3.41 3.83 4.52 9.55 9.27 12.12 2.36 4.18 4.45 8.59 7.53 12.36h-.65c-2.36-3.41-4.15-7.27-7.33-10.05 0 0-.52-1.2-.69-1.61.17.41 1.63 8.39 2.63 11.66h-.38c-1.99-8.49-5.08-16.85-10.52-23.77-1.11 2.35-3.05 4.6-3.16 7.25 1.58 5.38 2.67 10.9 2.92 16.52h-.81c-.12-5.44-1.24-10.79-2.63-16.03-1.44 1.5-1.88 4.58-4.39 4.68-7.88 1.32-15.98-1.26-22.83-5.08 1.76 5.68 4.1 11.17 6.87 16.43h-.85c-4.43-8.94-9.56-18.88-7.2-29.14-.06-.7-.18-2.1-.23-2.79-4.27 3.25-7.38 7.94-8.86 13.07-.39 6.27.01 12.58-.24 18.86h-.26c.19-6.44-.05-12.87-.2-19.3-2.53 1.05-4.96 2.36-7.11 4.06-6.18 4.79-12.52 9.44-17.8 15.24h-1.12c6.7-6.32 13.58-12.53 21.37-17.51 2.14-1.44 4.51-2.76 5.95-4.99 1.96-2.98 3.41-6.43 6.37-8.61.77-.91 2.41-1.47 2.27-2.88-.06-3.88-.374-8.912-2.424-12.302-4.192-.58-6.416-3.518-8.866-6.558-5.74-2.48-11.67-5.71-14.84-11.36-3.18-6.58-.34-13.76 2.12-20.05-3.4-1.32-6.76-2.75-10.01-4.39 3.15-2.32 6.78-3.85 9.97-6.11-.06-3.72-2.98-6.79-4.21-10.22 3.65 2.1 7.39 4.05 11.41 5.38 3.56-3.73 6.41-9.283 11.44-10.57 5.857-1.498 15.99-.44 23.7 1.58-1.24-6.09-3.431-12.467-5.364-18.373m.734.683c2.12 6.01 4.66 11.98 5.15 18.41-7.79-1.92-16.08-3.75-24.02-1.64-4.91 2.29-8.44 6.69-11.7 10.88-3.25-1.48-6.44-3.07-9.72-4.49 1.11 3 3.05 5.78 3.16 9.08-3.39 1.55-6.79 3.1-9.84 5.27 3.36 1.36 6.67 2.9 10.14 3.97-2.72 6.5-5.59 14.32-2.09 21.08 3.24 4.88 8.32 8.67 14.12 9.81.54-2.04.683-4.59 2.11-6.02s4.313-3.41 6.45-2.56 4.27 5.09 6.37 7.66c1.41-8.19-1.51-16.37-5.64-23.35-.73-1.04-1.33-2.53-2.85-2.58-.35-1.17-.67-2.36-.99-3.54-.79-.3.54-1.07 1.99-1.13.6.73 4.8 2.15 6.3 2.15-1.18-3.7-4.23-6.21-6.91-8.82 6.04-2.29 12.29.53 18.29 1.53 8.37 1.47 16.57 3.8 24.97 5.07 4.43.79 7.52-3.69 8.03-7.59.5-4.94-1.04-9.83-2.66-14.44-1.46-4.42-8.665 5.243-10.79 2.12m-36.66 13.32c2.38 3.09 6.43 5.56 5.92 10-2.4-.26-4.76-.68-7.1-1.21 5.51 8.84 11.29 19.32 8.2 30.1-2.01-2.69-3.39-5.9-5.96-8.13-3.04-1.26-6.62.72-7.74 3.66-2.3 4.96 2.84 11.3 8.13 10.57.19 2.83 1.77 5.33 2.03 8.14.34 4.71.57 9.47-.06 14.17-.2 2.27-.57 4.74.37 6.89 4.47 3.95 10.57 5.3 16.32 6.16 2.73.11 5.82.6 8.29-.83 3.85-5.39 4.86-12.98 10.84-16.66 1.7-1.54 5.12-2.6 4.67-5.42-4.45-1.55-9.32-.56-13.85.16 5.9-2.74 12.72-.62 19-1.2 3.07-.51 6.93.53 9.21-2.1-.17-3.55-3.7-6.13-6.63-7.75-.51-1.75-.95-3.53-1.73-5.19-2.99.17-5.99.39-8.99.29 3.47-1.16 7.54.13 10.63-2.14.42-1.54.85-3.41-.04-4.84-3.06-2.63-7.29-1.18-10.79-2.42-2.01-1.31-3.78-2.94-5.67-4.4-.92 1.37-1.83 2.75-2.79 4.1.7-1.68 1.4-3.36 1.87-5.13-7.22-1.17-14.92-1.08-21.67 2.03.37.8 1.1 2.4 1.46 3.19-2.45-2.55-3.01-6.28-3.05-9.68.61-.38 1.22-.77 1.82-1.16-.99 1.42-1.44 3.01-1.34 4.79 7.15-3.58 15.36-3.68 23.12-2.63-1.32-2.69-3.16-5.04-5-7.39 2.57 1.76 4.18 4.47 5.4 7.27 5.39-1.28 10.9-1.71 16.42-1.22-1.306-3.271-3.783-6.822-7.54-6.13.68-.12 2.04-.38 2.72-.5-1.93-2.8-4.63-5-5.88-8.25-10.26-2.42-20.65-4.39-30.95-6.66-3.17-.67-6.42-1.14-9.64-.48m-1.79 8.3c.15.12.46.36.61.49-.15-.13-.46-.37-.61-.49-.48-.54-.48-.54 0 0m36.61 15.71c-.12.63-.37 1.91-.5 2.55 3.64-1.18 7.45-1.81 11.27-1.84l-.06-2.49c-3.6.36-7.22.77-10.71 1.78m12.25.86c1.39.04 2.77.07 4.15.1-.14-.61-.42-1.85-.56-2.46-1.97-.02-4.45-.45-3.59 2.36m-28.8-.69c-1.83.82-5.07.58-5.51 3.01 3.49.29 6.83-1.59 10.37-1.69.48-3.26-3.11-1.53-4.86-1.32m6.04-.53c.29.44.89 1.33 1.19 1.77 2.83.13 5.68.15 8.43.91-.11-.84-.23-1.67-.34-2.51-3.09-.24-6.2-.62-9.28-.17m10.57 3.29c3.15 2.23 5.812 4.825 10.27 5.39 3.71.47 5.74-3.62 6-6.74-5.45-.36-11.01-.31-16.27 1.35z"/><path d="m40.58 69.57c2.44.22 5.37.74 6.21 3.42-1-.85-2.01-1.68-3.05-2.48-2.58.71-1.52 3.76-1.14 5.64 1.23.55 2.45 1.11 3.64 1.73-3.61.09-5.94-3.31-4.49-6.75-1.05.56-2.09 1.12-3.14 1.67.63-1.1 1.3-2.16 1.97-3.23z"/><path d="m60.72 1.72c8.96 4.13 14.5 12.98 19.87 20.87.898-4.959-.755-9.619-2.614-14.154-.727-1.774-1.486-3.529-2.136-5.276 2.71 1.86 5.31 3.94 7.42 6.48 2.88 3.47 6.66 6.41 8.12 10.83 1.62 4.61 3.16 9.5 2.66 14.44-.51 3.9-3.6 8.38-8.03 7.59-8.4-1.27-16.6-3.6-24.97-5.07-6-1-12.25-3.82-18.29-1.53 2.68 2.61 5.73 5.12 6.91 8.82-1.5 0-8.685-1.17-8.29-1.02.361 1.138 3.324 4.86 3.84 6.12 4.13 6.98 7.05 15.16 5.64 23.35-2.1-2.57-4.233-6.81-6.37-7.66s-5.023 1.13-6.45 2.56-1.57 3.98-2.11 6.02c-5.8-1.14-10.88-4.93-14.12-9.81-3.5-6.76-.63-14.58 2.09-21.08-3.47-1.07-6.78-2.61-10.14-3.97 3.05-2.17 6.45-3.72 9.84-5.27-.11-3.3-2.05-6.08-3.16-9.08 3.28 1.42 6.47 3.01 9.72 4.49 3.26-4.19 6.79-8.59 11.7-10.88 7.94-2.11 16.23-.28 24.02 1.64-.49-6.43-3.03-12.4-5.15-18.41z" fill="#ea7117"/><path d="m43.93 35.91c3.22-.66 6.47-.19 9.64.48 10.3 2.27 20.69 4.24 30.95 6.66 1.25 3.25 3.95 5.45 5.88 8.25-.68.12-2.04.38-2.72.5 3.658-.682 6.23 2.757 7.54 6.13-5.52-.49-11.03-.06-16.42 1.22-1.22-2.8-2.83-5.51-5.4-7.27 1.84 2.35 3.68 4.7 5 7.39-7.76-1.05-15.97-.95-23.12 2.63-.1-1.78.35-3.37 1.34-4.79-.6.39-1.21.78-1.82 1.16.04 3.4.6 7.13 3.05 9.68-.36-.79-1.09-2.39-1.46-3.19 6.75-3.11 14.45-3.2 21.67-2.03-.47 1.77-1.17 3.45-1.87 5.13.96-1.35 1.87-2.73 2.79-4.1 1.89 1.46 3.66 3.09 5.67 4.4 3.5 1.24 7.73-.21 10.79 2.42.89 1.43.46 3.3.04 4.84-3.09 2.27-7.16.98-10.63 2.14 3 .1 6-.12 8.99-.29.78 1.66 1.22 3.44 1.73 5.19 2.93 1.62 6.46 4.2 6.63 7.75-2.28 2.63-6.14 1.59-9.21 2.1-6.28.58-13.1-1.54-19 1.2 4.53-.72 9.4-1.71 13.85-.16.45 2.82-2.97 3.88-4.67 5.42-5.98 3.68-6.99 11.27-10.84 16.66-2.47 1.43-5.56.94-8.29.83-5.75-.86-11.85-2.21-16.32-6.16-.94-2.15-.57-4.62-.37-6.89.63-4.7.4-9.46.06-14.17-.26-2.81-1.84-5.31-2.03-8.14-5.29.73-10.43-5.61-8.13-10.57 1.12-2.94 4.7-4.92 7.74-3.66 2.57 2.23 3.95 5.44 5.96 8.13 3.09-10.78-2.69-21.26-8.2-30.1 2.34.53 4.785.346 7.185.606.018-4.44-3.883-6.306-6.005-9.396m-3.35 33.66c-.67 1.07-1.34 2.13-1.97 3.23 1.05-.55 2.09-1.11 3.14-1.67-1.45 3.44.88 6.84 4.49 6.75-1.19-.62-2.41-1.18-3.64-1.73-.38-1.88-1.44-4.93 1.14-5.64 1.04.8 2.05 1.63 3.05 2.48-.84-2.68-3.77-3.2-6.21-3.42z" fill="#feb692"/><path d="m42.14 44.21c-.48-.54-.48-.54 0 0z" fill="#feb692"/><path d="m42.14 44.21c.15.12.46.36.61.49-.15-.13-.46-.37-.61-.49z" fill="#feb692"/><path d="m78.81 62.85c5.26-1.66 10.82-1.71 16.27-1.35-.26 3.12-2.29 7.21-6 6.74-4.38.75-7.12-3.16-10.27-5.39z" fill="#feb692"/><g fill="#f6f6f6"><path d="m78.75 59.92c3.49-1.01 7.11-1.42 10.71-1.78l.06 2.49c-3.82.03-7.63.66-11.27 1.84.13-.64.38-1.92.5-2.55z"/><path d="m91 60.78c-.86-2.81 1.62-2.38 3.59-2.36.14.61.42 1.85.56 2.46-1.38-.03-2.76-.06-4.15-.1z"/><path d="m62.2 60.09c1.75-.21 5.34-1.94 4.86 1.32-3.54.1-6.88 1.98-10.37 1.69.44-2.43 3.68-2.19 5.51-3.01z"/><path d="m68.24 59.56c3.08-.45 6.19-.07 9.28.17.11.84.23 1.67.34 2.51-2.75-.76-5.6-.78-8.43-.91-.3-.44-.9-1.33-1.19-1.77z"/><path d="m54.97 128c-2.77-5.26-5.11-10.75-6.87-16.43 6.85 3.82 14.95 6.4 22.83 5.08 2.51-.1 2.95-3.18 4.39-4.68 1.39 5.24 2.51 10.59 2.63 16.03z"/></g><g fill="#ab2426"><path d="m46.69 96.07c.05.69.17 2.09.23 2.79-2.36 10.26 2.77 20.2 7.2 29.14h-16.53c.25-6.28-.15-12.59.24-18.86 1.48-5.13 4.59-9.82 8.86-13.07z"/><path d="m79 104.23c5.44 6.92 8.53 15.28 10.52 23.77h-10.76c-.25-5.62-1.34-11.14-2.92-16.52.11-2.65 2.05-4.9 3.16-7.25z"/><path d="m30.02 112.76c2.15-1.7 4.58-3.01 7.11-4.06.15 6.43.39 12.86.2 19.3h-25.11c5.28-5.8 11.62-10.45 17.8-15.24z"/><path d="m87.27 116.34c.17.41.52 1.21.69 1.61-.17-.4-.52-1.2-.69-1.61z"/><path d="m87.265 116.393c3.18 2.78 5.665 8.197 8.025 11.607h-5.39c-1-3.27-2.235-8.217-2.635-11.607z"/></g></g></svg>

<svg xmlns="http://www.w3.org/2000/svg" fill-rule="evenodd" stroke-linejoin="round" stroke-miterlimit="2" clip-rule="evenodd" viewBox="0 0 92 127"><g fill-rule="nonzero"><path d="M62.042,1.745C63.314,2.357 67.177,5.359 67.177,5.359C67.783,5.851 68.241,6.421 68.93,7.02C71.949,9.645 81.218,22.541 80.59,22.59C78.228,22.774 84.341,20.735 74.914,2.143C80.684,5.833 85.26,10.96 89.62,16.17C92.8,21.16 94.31,27.18 94.64,33.04C94.85,38.31 91.01,43.05 85.73,43.7C87.803,48.268 91.705,50.768 94.55,56.04C96.91,60.01 95.1,64.73 92.62,68.16C93.86,69.15 95.3,69.95 96.26,71.24C96.99,73.56 95.73,75.66 94.21,77.31C95.093,79.48 95.204,80.898 96.133,82.237C97.602,82.804 100.059,85.059 101.164,86.334C101.835,87.107 102.396,88.158 102.87,89.02C102.93,90.76 101.27,91.86 99.77,92.19C96.23,92.94 92.59,92.82 89,92.95C88.8,93.56 88.39,94.77 88.18,95.38C85.16,98.09 81.61,100.23 79.14,103.52C82.55,107.35 83.66,113.07 88.41,115.64C90.77,119.82 92.86,124.23 95.94,128L95.29,128C92.93,124.59 91.14,120.73 87.96,117.95C87.96,117.95 87.44,116.75 87.27,116.34C87.44,116.75 88.9,124.73 89.9,128L89.52,128C87.53,119.51 84.44,111.15 79,104.23C77.89,106.58 75.95,108.83 75.84,111.48C77.42,116.86 78.51,122.38 78.76,128L77.95,128C77.83,122.56 76.71,117.21 75.32,111.97C73.88,113.47 73.44,116.55 70.93,116.65C63.05,117.97 54.95,115.39 48.1,111.57C49.86,117.25 52.2,122.74 54.97,128L54.12,128C49.69,119.06 44.56,109.12 46.92,98.86C46.86,98.16 46.74,96.76 46.69,96.07C42.42,99.32 39.31,104.01 37.83,109.14C37.44,115.41 37.84,121.72 37.59,128L37.33,128C37.52,121.56 37.28,115.13 37.13,108.7C34.6,109.75 32.17,111.06 30.02,112.76C23.84,117.55 17.5,122.2 12.22,128L11.1,128C17.8,121.68 24.68,115.47 32.47,110.49C34.61,109.05 36.98,107.73 38.42,105.5C40.38,102.52 41.83,99.07 44.79,96.89C45.56,95.98 47.2,95.42 47.06,94.01C47,90.13 46.686,85.098 44.636,81.708C40.444,81.128 38.22,78.19 35.77,75.15C30.03,72.67 24.1,69.44 20.93,63.79C17.75,57.21 20.59,50.03 23.05,43.74C19.65,42.42 16.29,40.99 13.04,39.35C16.19,37.03 19.82,35.5 23.01,33.24C22.95,29.52 20.03,26.45 18.8,23.02C22.45,25.12 26.19,27.07 30.21,28.4C33.77,24.67 36.62,19.117 41.65,17.83C47.507,16.332 57.64,17.39 65.35,19.41C64.11,13.32 61.919,6.943 59.986,1.037M60.72,1.72C62.84,7.73 65.38,13.7 65.87,20.13C58.08,18.21 49.79,16.38 41.85,18.49C36.94,20.78 33.41,25.18 30.15,29.37C26.9,27.89 23.71,26.3 20.43,24.88C21.54,27.88 23.48,30.66 23.59,33.96C20.2,35.51 16.8,37.06 13.75,39.23C17.11,40.59 20.42,42.13 23.89,43.2C21.17,49.7 18.3,57.52 21.8,64.28C25.04,69.16 30.12,72.95 35.92,74.09C36.46,72.05 36.603,69.5 38.03,68.07C39.457,66.64 42.343,64.66 44.48,65.51C46.617,66.36 48.75,70.6 50.85,73.17C52.26,64.98 49.34,56.8 45.21,49.82C44.48,48.78 43.88,47.29 42.36,47.24C42.01,46.07 41.69,44.88 41.37,43.7C40.58,43.4 41.91,42.63 43.36,42.57C43.96,43.3 48.16,44.72 49.66,44.72C48.48,41.02 45.43,38.51 42.75,35.9C48.79,33.61 55.04,36.43 61.04,37.43C69.41,38.9 77.61,41.23 86.01,42.5C90.44,43.29 93.53,38.81 94.04,34.91C94.54,29.97 93,25.08 91.38,20.47C89.92,16.05 82.715,25.713 80.59,22.59M43.93,35.91C46.31,39 50.36,41.47 49.85,45.91C47.45,45.65 45.09,45.23 42.75,44.7C48.26,53.54 54.04,64.02 50.95,74.8C48.94,72.11 47.56,68.9 44.99,66.67C41.95,65.41 38.37,67.39 37.25,70.33C34.95,75.29 40.09,81.63 45.38,80.9C45.57,83.73 47.15,86.23 47.41,89.04C47.75,93.75 47.98,98.51 47.35,103.21C47.15,105.48 46.78,107.95 47.72,110.1C52.19,114.05 58.29,115.4 64.04,116.26C66.77,116.37 69.86,116.86 72.33,115.43C76.18,110.04 77.19,102.45 83.17,98.77C84.87,97.23 88.29,96.17 87.84,93.35C83.39,91.8 78.52,92.79 73.99,93.51C79.89,90.77 86.71,92.89 92.99,92.31C96.06,91.8 99.92,92.84 102.2,90.21C102.03,86.66 98.5,84.08 95.57,82.46C95.06,80.71 94.62,78.93 93.84,77.27C90.85,77.44 87.85,77.66 84.85,77.56C88.32,76.4 92.39,77.69 95.48,75.42C95.9,73.88 96.33,72.01 95.44,70.58C92.38,67.95 88.15,69.4 84.65,68.16C82.64,66.85 80.87,65.22 78.98,63.76C78.06,65.13 77.15,66.51 76.19,67.86C76.89,66.18 77.59,64.5 78.06,62.73C70.84,61.56 63.14,61.65 56.39,64.76C56.76,65.56 57.49,67.16 57.85,67.95C55.4,65.4 54.84,61.67 54.8,58.27C55.41,57.89 56.02,57.5 56.62,57.11C55.63,58.53 55.18,60.12 55.28,61.9C62.43,58.32 70.64,58.22 78.4,59.27C77.08,56.58 75.24,54.23 73.4,51.88C75.97,53.64 77.58,56.35 78.8,59.15C84.19,57.87 89.7,57.44 95.22,57.93C93.914,54.659 91.437,51.108 87.68,51.8C88.36,51.68 89.72,51.42 90.4,51.3C88.47,48.5 85.77,46.3 84.52,43.05C74.26,40.63 63.87,38.66 53.57,36.39C50.4,35.72 47.15,35.25 43.93,35.91M42.14,44.21C42.29,44.33 42.6,44.57 42.75,44.7C42.6,44.57 42.29,44.33 42.14,44.21C41.66,43.67 41.66,43.67 42.14,44.21M78.75,59.92C78.63,60.55 78.38,61.83 78.25,62.47C81.89,61.29 85.7,60.66 89.52,60.63L89.46,58.14C85.86,58.5 82.24,58.91 78.75,59.92M91,60.78C92.39,60.82 93.77,60.85 95.15,60.88C95.01,60.27 94.73,59.03 94.59,58.42C92.62,58.4 90.14,57.97 91,60.78M62.2,60.09C60.37,60.91 57.13,60.67 56.69,63.1C60.18,63.39 63.52,61.51 67.06,61.41C67.54,58.15 63.95,59.88 62.2,60.09M68.24,59.56C68.53,60 69.13,60.89 69.43,61.33C72.26,61.46 75.11,61.48 77.86,62.24C77.75,61.4 77.63,60.57 77.52,59.73C74.43,59.49 71.32,59.11 68.24,59.56M78.81,62.85C81.96,65.08 84.622,67.675 89.08,68.24C92.79,68.71 94.82,64.62 95.08,61.5C89.63,61.14 84.07,61.19 78.81,62.85Z" transform="matrix(1,0,0,1,-11.1,-1.03664)"/><path d="M40.58,69.57C43.02,69.79 45.95,70.31 46.79,72.99C45.79,72.14 44.78,71.31 43.74,70.51C41.16,71.22 42.22,74.27 42.6,76.15C43.83,76.7 45.05,77.26 46.24,77.88C42.63,77.97 40.3,74.57 41.75,71.13C40.7,71.69 39.66,72.25 38.61,72.8C39.24,71.7 39.91,70.64 40.58,69.57Z" transform="matrix(1,0,0,1,-11.1,-1.03664)"/><path fill="#ea7117" d="M60.72,1.72C69.68,5.85 75.22,14.7 80.59,22.59C81.488,17.631 79.835,12.971 77.976,8.436C77.249,6.662 76.49,4.907 75.84,3.16C78.55,5.02 81.15,7.1 83.26,9.64C86.14,13.11 89.92,16.05 91.38,20.47C93,25.08 94.54,29.97 94.04,34.91C93.53,38.81 90.44,43.29 86.01,42.5C77.61,41.23 69.41,38.9 61.04,37.43C55.04,36.43 48.79,33.61 42.75,35.9C45.43,38.51 48.48,41.02 49.66,44.72C48.16,44.72 40.975,43.55 41.37,43.7C41.731,44.838 44.694,48.56 45.21,49.82C49.34,56.8 52.26,64.98 50.85,73.17C48.75,70.6 46.617,66.36 44.48,65.51C42.343,64.66 39.457,66.64 38.03,68.07C36.603,69.5 36.46,72.05 35.92,74.09C30.12,72.95 25.04,69.16 21.8,64.28C18.3,57.52 21.17,49.7 23.89,43.2C20.42,42.13 17.11,40.59 13.75,39.23C16.8,37.06 20.2,35.51 23.59,33.96C23.48,30.66 21.54,27.88 20.43,24.88C23.71,26.3 26.9,27.89 30.15,29.37C33.41,25.18 36.94,20.78 41.85,18.49C49.79,16.38 58.08,18.21 65.87,20.13C65.38,13.7 62.84,7.73 60.72,1.72Z" transform="matrix(1,0,0,1,-11.1,-1.03664)"/><path fill="#feb692" d="M43.93,35.91C47.15,35.25 50.4,35.72 53.57,36.39C63.87,38.66 74.26,40.63 84.52,43.05C85.77,46.3 88.47,48.5 90.4,51.3C89.72,51.42 88.36,51.68 87.68,51.8C91.338,51.118 93.91,54.557 95.22,57.93C89.7,57.44 84.19,57.87 78.8,59.15C77.58,56.35 75.97,53.64 73.4,51.88C75.24,54.23 77.08,56.58 78.4,59.27C70.64,58.22 62.43,58.32 55.28,61.9C55.18,60.12 55.63,58.53 56.62,57.11C56.02,57.5 55.41,57.89 54.8,58.27C54.84,61.67 55.4,65.4 57.85,67.95C57.49,67.16 56.76,65.56 56.39,64.76C63.14,61.65 70.84,61.56 78.06,62.73C77.59,64.5 76.89,66.18 76.19,67.86C77.15,66.51 78.06,65.13 78.98,63.76C80.87,65.22 82.64,66.85 84.65,68.16C88.15,69.4 92.38,67.95 95.44,70.58C96.33,72.01 95.9,73.88 95.48,75.42C92.39,77.69 88.32,76.4 84.85,77.56C87.85,77.66 90.85,77.44 93.84,77.27C94.62,78.93 95.06,80.71 95.57,82.46C98.5,84.08 102.03,86.66 102.2,90.21C99.92,92.84 96.06,91.8 92.99,92.31C86.71,92.89 79.89,90.77 73.99,93.51C78.52,92.79 83.39,91.8 87.84,93.35C88.29,96.17 84.87,97.23 83.17,98.77C77.19,102.45 76.18,110.04 72.33,115.43C69.86,116.86 66.77,116.37 64.04,116.26C58.29,115.4 52.19,114.05 47.72,110.1C46.78,107.95 47.15,105.48 47.35,103.21C47.98,98.51 47.75,93.75 47.41,89.04C47.15,86.23 45.57,83.73 45.38,80.9C40.09,81.63 34.95,75.29 37.25,70.33C38.37,67.39 41.95,65.41 44.99,66.67C47.56,68.9 48.94,72.11 50.95,74.8C54.04,64.02 48.26,53.54 42.75,44.7C45.09,45.23 47.535,45.046 49.935,45.306C49.953,40.866 46.052,39 43.93,35.91M40.58,69.57C39.91,70.64 39.24,71.7 38.61,72.8C39.66,72.25 40.7,71.69 41.75,71.13C40.3,74.57 42.63,77.97 46.24,77.88C45.05,77.26 43.83,76.7 42.6,76.15C42.22,74.27 41.16,71.22 43.74,70.51C44.78,71.31 45.79,72.14 46.79,72.99C45.95,70.31 43.02,69.79 40.58,69.57Z" transform="matrix(1,0,0,1,-11.1,-1.03664)"/><path fill="#feb692" d="M42.14,44.21C41.66,43.67 41.66,43.67 42.14,44.21Z" transform="matrix(1,0,0,1,-11.1,-1.03664)"/><path fill="#feb692" d="M42.14,44.21C42.29,44.33 42.6,44.57 42.75,44.7C42.6,44.57 42.29,44.33 42.14,44.21Z" transform="matrix(1,0,0,1,-11.1,-1.03664)"/><path fill="#feb692" d="M78.81,62.85C84.07,61.19 89.63,61.14 95.08,61.5C94.82,64.62 92.79,68.71 89.08,68.24C84.7,68.99 81.96,65.08 78.81,62.85Z" transform="matrix(1,0,0,1,-11.1,-1.03664)"/><path fill="#f6f6f6" d="M78.75,59.92C82.24,58.91 85.86,58.5 89.46,58.14L89.52,60.63C85.7,60.66 81.89,61.29 78.25,62.47C78.38,61.83 78.63,60.55 78.75,59.92Z" transform="matrix(1,0,0,1,-11.1,-1.03664)"/><path fill="#f6f6f6" d="M91,60.78C90.14,57.97 92.62,58.4 94.59,58.42C94.73,59.03 95.01,60.27 95.15,60.88C93.77,60.85 92.39,60.82 91,60.78Z" transform="matrix(1,0,0,1,-11.1,-1.03664)"/><path fill="#f6f6f6" d="M62.2,60.09C63.95,59.88 67.54,58.15 67.06,61.41C63.52,61.51 60.18,63.39 56.69,63.1C57.13,60.67 60.37,60.91 62.2,60.09Z" transform="matrix(1,0,0,1,-11.1,-1.03664)"/><path fill="#f6f6f6" d="M68.24,59.56C71.32,59.11 74.43,59.49 77.52,59.73C77.63,60.57 77.75,61.4 77.86,62.24C75.11,61.48 72.26,61.46 69.43,61.33C69.13,60.89 68.53,60 68.24,59.56Z" transform="matrix(1,0,0,1,-11.1,-1.03664)"/><path fill="#f6f6f6" d="M54.97,128C52.2,122.74 49.86,117.25 48.1,111.57C54.95,115.39 63.05,117.97 70.93,116.65C73.44,116.55 73.88,113.47 75.32,111.97C76.71,117.21 77.83,122.56 77.95,128L54.97,128Z" transform="matrix(1,0,0,1,-11.1,-1.03664)"/><path fill="#ab2426" d="M46.69,96.07C46.74,96.76 46.86,98.16 46.92,98.86C44.56,109.12 49.69,119.06 54.12,128L37.59,128C37.84,121.72 37.44,115.41 37.83,109.14C39.31,104.01 42.42,99.32 46.69,96.07Z" transform="matrix(1,0,0,1,-11.1,-1.03664)"/><path fill="#ab2426" d="M79,104.23C84.44,111.15 87.53,119.51 89.52,128L78.76,128C78.51,122.38 77.42,116.86 75.84,111.48C75.95,108.83 77.89,106.58 79,104.23Z" transform="matrix(1,0,0,1,-11.1,-1.03664)"/><path fill="#ab2426" d="M30.02,112.76C32.17,111.06 34.6,109.75 37.13,108.7C37.28,115.13 37.52,121.56 37.33,128L12.22,128C17.5,122.2 23.84,117.55 30.02,112.76Z" transform="matrix(1,0,0,1,-11.1,-1.03664)"/><path fill="#ab2426" d="M87.27,116.34C87.44,116.75 87.79,117.55 87.96,117.95C87.79,117.55 87.44,116.75 87.27,116.34Z" transform="matrix(1,0,0,1,-11.1,-1.03664)"/><path fill="#ab2426" d="M87.265,116.393C90.445,119.173 92.93,124.59 95.29,128L89.9,128C88.9,124.73 87.665,119.783 87.265,116.393Z" transform="matrix(1,0,0,1,-11.1,-1.03664)"/></g></svg>
